X: 76
T: Ave mater omnium
C: Gaspar van Weerbeke
%%abc-version 2.0
%%abcx-abcm2ps-target-version 5.9.1 (29 Sep 2008)
%%abc-creator hum2abc beta
%%abcx-conversion-date 2022/03/06 13:06:00
%%abc-copyright Copyright 2008, Pavanello, Agnese
%%abc-edited-by Mair-Gruber, Roland
%%humdrum-veritas 1656704604
%%humdrum-veritas-data 483151263
%%linebreak <none>
%%barnumbers 0
L: 1/4
M: 6/4
N: Derived from Gas0402-Ave_mater_omnium.krn
%%staves [1 2 3 4]
V: 1 clef=treble
V: 2 clef=treble-8
V: 3 clef=treble-8
V: 4 clef=bass
K: F
[V:1] z6 | 
[V:2] z6 | 
[V:3] G2GA2B | 
[V:4] z6 | 
[V:1] G2GA2B | 
[V:2] z6 | 
[V:3] c2BAd2 | 
[V:4] z6 | 
[V:1] c2BAd2 | 
[V:2] z6 | 
[V:3] c>BGF2G | 
[V:4] z6 | 
[V:1] c3/B//A//GFBA | 
[V:2] z6 | 
[V:3] A>Bcd2c | 
[V:4] F,2E,D,G,/D,/F, | 
[V:1] G2^FG2z | 
[V:2] z2zd2d | 
[V:3] BA2G3 | 
[V:4] G,D,2G,,3 | 
[V:1] d2d2c2 | 
[V:2] B2>G2A2 | 
[V:3] z6 | 
[V:4] z6 | 
[V:1] FB/A/B/A/B2A | 
[V:2] DG/F/G/F/DF2 | 
[V:3] d2d2c2 | 
[V:4] z6 | 
[V:1] BF2DE2 | 
[V:2] z2zF2E | 
[V:3] B>AFB2A | 
[V:4] D,2D,2C,2 | 
[V:1] DG/F/G/F/G2F | 
[V:2] G>DE/D/GD2 | 
[V:3] B2B2A2 | 
[V:4] z6 | 
[V:1] GD2B,C2 | 
[V:2] z6 | 
[V:3] G>FDG2F | 
[V:4] B,,2B,,2A,,2 | 
[V:1] B,_E/D/E/D/D2^C | 
[V:2] dc/d/c/d/BA2 | 
[V:3] G2G2E2 | 
[V:4] G,,C,/B,,/C,/B,,/G,,A,,2 | 
[V:1] D3D2B, | 
[V:2] FBAB2G | 
[V:3] DGFG/F/G/D/G | 
[V:4] B,,G,,D,B,,G,,2 | 
[V:1] A,3z2F | 
[V:2] Ad2z2z | 
[V:3] F3F3 | 
[V:4] D,2D,D,>C,A,, | 
[V:1] G/A/B/c/AG2F | 
[V:2] d>efd3 | 
[V:3] z2FG/A/ B/c/A | 
[V:4] G,,2D,B,,G,,D, | 
[V:1] G2ABdc | 
[V:2] B>cdd>ef | 
[V:3] G2FG2A | 
[V:4] _E,2D,z2z | 
[V:1] B>AGFB2 | 
[V:2] gdefd/e/f- | 
[V:3] GBcdBc- | 
[V:4] G,>F,E,D,G,F,- | 
[V:1] AG>FF2E | 
[V:2] fdec2c | 
[V:3] cBcAG2 | 
[V:4] F,G,E,F,C,2 | 
[V:1] FzFG/A/B/c/A | 
[V:2] AF/G/AB3/A//G//F | 
[V:3] F3z2F | 
[V:4] D,2D,B,,G,,D, | 
[V:1] G2FGBA | 
[V:2] B/c/dzzd/e/f | 
[V:3] G/A/B/c/AG2F | 
[V:4] G,,2D,E,G,D, | 
[V:1] d2cBA3/G/ | 
[V:2] dge/f/ d/g<fe/ | 
[V:3] GBAd2c | 
[V:4] B,G,A,/F,/G,D,F, | 
[V:1] G2^FG2z | 
[V:2] d2dd3 | 
[V:3] BA2G3 | 
[V:4] G,D,2G,,3 | 
[V:1] B>GAD/GE/F | 
[V:2] z6 | 
[V:3] z2zB>GA | 
[V:4] z6 | 
[V:1] B,>G,A,z/BG/A | 
[V:2] z6 | 
[V:3] D/GE/FD/GE/F | 
[V:4] z6 | 
[V:1] D/GE<FED^C/ | 
[V:2] z6 | 
[V:3] B>GAD/GF/E | 
[V:4] z6 | 
[V:1] D3/F3/DEF | 
[V:2] z6 | 
[V:3] Dd3/B3/cA | 
[V:4] z6 | 
[V:1] Gzzz2z | 
[V:2] zd3/B3/cA | 
[V:3] Gzzz2z | 
[V:4] G,,>A,,B,,/C,/D,E,F, | 
[V:1] z6 | 
[V:2] G/Bc/AG>AB/c/ | 
[V:3] z6 | 
[V:4] G,>E,F,G,D3/B,/- | 
[V:1] z6 | 
[V:2] defgf/ed/ | 
[V:3] z6 | 
[V:4] B,CA,G,A,G,/F,/- | 
[V:1] z6 | 
[V:2] d2^cd3 | 
[V:3] z2zAB/A/B | 
[V:4] F,/D,/F,/G,/E,D,G,/F,/G, | 
[V:1] z6 | 
[V:2] d3d2d | 
[V:3] AzAB3/A//G//B | 
[V:4] D,>E,F,G,3/F,//E,//G, | 
[V:1] z6 | 
[V:2] f2edc/B/c | 
[V:3] A>FABzA | 
[V:4] D,2C,B,,_E,/D,/C, | 
[V:1] z6 | 
[V:2] d2zz2z | 
[V:3] B>AFBA/G/c | 
[V:4] B,,zA,,G,,C,/B,,/A,, | 
[V:1] z6 | 
[V:2] z6 | 
[V:3] B/AGF/GF/D/E | 
[V:4] G,,/C,B,,/A,,G,,D,C, | 
[V:1] z6 | 
[V:2] z6 | 
[V:3] DdcB>GA | 
[V:4] B,,>G,,A,,G,,G,F, | 
[V:1] z6 | 
[V:2] z6 | 
[V:3] G/cA/BA>FG | 
[V:4] E,>C,D,C,F,E, | 
[V:1] z6 | 
[V:2] z6 | 
[V:3] F/BG/AG>EF | 
[V:4] D,>B,,C,B,,_E,D, | 
[V:1] z6 | 
[V:2] z6 | 
[V:3] E/AF/GF>DE | 
[V:4] C,>A,,B,,A,,D,C, | 
[V:1] z2zGdc | 
[V:2] z2cB>GA | 
[V:3] D/GE/FGD/E/F | 
[V:4] B,,>G,,A,,G,,2z | 
[V:1] B>GAG/cA/B | 
[V:2] G/de/c/f/ d/c/fd3//e// | 
[V:3] GzcB/AF/G | 
[V:4] G,>E,F,G,/A,/F,z | 
[V:1] A>BGF/BG/A | 
[V:2] f/dc//B//cd>Bf | 
[V:3] F>DED/dB/c | 
[V:4] D,F,G,A,/G,/D,/G,/F, | 
[V:1] G2^FG3 |]  
[V:2] d2dd3 |]  
[V:3] BA2G3 |]  
[V:4] G,D,2G,,3 |]  


